static/img/helluvaOS Logo Dark.svg

<svg width="204" height="66" viewBox="0 0 204 66" fill="none" xmlns="http://www.w3.org/2000/svg">
<path d="M15.3363 15.5208H22.008L20.6319 26.8884C22.4667 25.9835 24.3292 25.5311 26.2195 25.5311C28.8882 25.5311 30.6952 26.1673 31.6403 27.4398C32.5855 28.684 32.9191 30.4231 32.6411 32.657L30.8898 47.3331H24.218L25.8442 33.675C26.0666 31.9218 25.3995 31.0452 23.8427 31.0452C22.4806 31.0452 21.1879 31.4128 19.9648 32.148L18.1717 47.3331H11.5L15.3363 15.5208Z" fill="#262626"/>
<path d="M43.7247 38.9771H40.5556C40.3054 40.3061 40.5 41.2393 41.1394 41.7766C41.7788 42.2856 42.9324 42.5401 44.6004 42.5401C47.4081 42.5401 49.7849 42.0735 51.7308 41.1403L51.1053 46.4424C48.6312 47.4321 45.9625 47.9269 43.0992 47.9269C39.6522 47.9269 37.192 47.0221 35.7186 45.2123C34.2731 43.3742 33.7727 40.5465 34.2175 36.729C35.107 29.2637 38.8182 25.5311 45.3509 25.5311C48.4922 25.5311 50.73 26.0966 52.0644 27.2277C53.4265 28.3588 53.9686 30.0272 53.6906 32.2329C53.1624 36.729 49.8405 38.9771 43.7247 38.9771ZM41.056 34.8203H44.3085C45.1703 34.8203 45.8374 34.6223 46.31 34.2264C46.7826 33.8023 47.0606 33.2933 47.144 32.6994C47.2274 32.1056 47.0745 31.6107 46.6853 31.2149C46.2961 30.819 45.6706 30.621 44.8089 30.621C42.6128 30.621 41.3618 32.0208 41.056 34.8203Z" fill="#262626"/>
<path d="M63.5643 42.0311L62.8972 47.5028C62.3134 47.6159 61.674 47.6724 60.979 47.6724C59.0887 47.6724 57.6015 47.1776 56.5173 46.1879C55.4332 45.1699 55.0162 43.6712 55.2664 41.6917L58.4354 15.5208H65.0655L62.0215 40.7586C61.9659 41.1827 62.0493 41.5079 62.2717 41.7341C62.4941 41.9321 62.925 42.0311 63.5643 42.0311Z" fill="#262626"/>
<path d="M74.4222 42.0311L73.755 47.5028C73.1713 47.6159 72.5319 47.6724 71.8369 47.6724C69.9466 47.6724 68.4593 47.1776 67.3752 46.1879C66.291 45.1699 65.8741 43.6712 66.1242 41.6917L69.2933 15.5208H75.9234L72.8794 40.7586C72.8238 41.1827 72.9072 41.5079 73.1296 41.7341C73.352 41.9321 73.7828 42.0311 74.4222 42.0311Z" fill="#262626"/>
<path d="M95.2877 47.3331H91.2847L90.6175 45.8061C88.1712 47.22 85.6693 47.9269 83.1118 47.9269C80.4431 47.9269 78.6361 47.3048 77.691 46.0606C76.7458 44.7881 76.3983 43.0349 76.6485 40.801L78.4416 26.1249H85.1133L83.4454 39.783C83.2508 41.5362 83.9318 42.4128 85.4886 42.4128C86.8785 42.4128 88.1573 42.0452 89.3248 41.31L91.1596 26.1249H97.8313L95.2877 47.3331Z" fill="#262626"/>
<path d="M110.208 47.6724H104.453L99.2826 26.1249H106.246L108.331 39.274L113.585 26.1249H120.549L110.208 47.6724Z" fill="#262626"/>
<path d="M131.766 41.5221L132.933 31.9359C132.155 31.3421 131.21 31.0452 130.098 31.0452C128.652 31.0452 127.61 31.5118 126.97 32.4449C126.331 33.3498 125.886 34.7778 125.636 36.729C125.414 38.7084 125.511 40.1506 125.928 41.0555C126.345 41.9604 127.276 42.4128 128.722 42.4128C129.222 42.4128 129.722 42.3421 130.223 42.2007C130.723 42.0593 131.098 41.9038 131.349 41.7341L131.766 41.5221ZM140.314 26.1249L137.77 47.3331H133.767L132.808 45.6365C130.918 47.1634 128.583 47.9269 125.803 47.9269C123.078 47.9269 121.16 47.0362 120.048 45.2547C118.936 43.4449 118.603 40.603 119.048 36.729C119.52 32.855 120.535 30.0272 122.092 28.2457C123.648 26.4359 125.789 25.5311 128.513 25.5311C131.265 25.5311 133.42 26.2946 134.976 27.8215L136.311 26.1249H140.314Z" fill="#262626"/>
<path d="M159.321 46.7817C157.57 47.5452 155.499 47.9269 153.108 47.9269C150.717 47.9269 148.73 47.5311 147.145 46.7393C145.561 45.9192 144.421 44.7881 143.726 43.346C143.031 41.8755 142.586 40.1365 142.392 38.1287C142.197 36.0928 142.28 33.8588 142.642 31.4269C142.948 28.8537 143.406 26.6197 144.018 24.7251C144.629 22.8023 145.477 21.0773 146.561 19.5503C147.673 18.0233 149.105 16.8781 150.856 16.1146C152.608 15.3228 154.679 14.9269 157.069 14.9269C159.46 14.9269 161.448 15.337 163.032 16.157C164.617 16.9488 165.757 18.0799 166.452 19.5503C167.147 20.9925 167.591 22.7316 167.786 24.7676C168.008 26.7753 167.939 28.9951 167.577 31.4269C167.244 34.0002 166.771 36.2483 166.16 38.1712C165.548 40.0658 164.686 41.7766 163.574 43.3035C162.49 44.8305 161.072 45.9899 159.321 46.7817ZM160.447 23.4526C159.78 21.8691 158.418 21.0773 156.361 21.0773C154.303 21.0773 152.733 21.8832 151.649 23.4951C150.592 25.0786 149.842 27.7226 149.397 31.4269C148.924 35.1313 149.036 37.7894 149.73 39.4012C150.425 40.9848 151.802 41.7766 153.859 41.7766C155.916 41.7766 157.472 40.9848 158.529 39.4012C159.585 37.8177 160.35 35.1596 160.822 31.4269C161.267 27.6943 161.142 25.0362 160.447 23.4526Z" fill="#262626"/>
<path d="M181.825 27.9912C183.716 28.274 185.231 28.585 186.37 28.9244C187.51 29.2354 188.539 29.7303 189.456 30.4089C190.373 31.0593 190.985 31.9359 191.291 33.0388C191.597 34.1416 191.652 35.5272 191.458 37.1956C190.596 44.3498 186.078 47.9269 177.906 47.9269C173.569 47.9269 170.386 47.2766 168.357 45.9758L169.232 39.0195C171.818 40.6596 174.736 41.4796 177.989 41.4796C182.075 41.4796 184.258 40.2637 184.536 37.8318C184.675 36.6442 184.466 35.7958 183.91 35.2868C183.382 34.7778 182.339 34.4102 180.783 34.184C176.835 33.6467 174.125 32.6712 172.652 31.2573C171.178 29.8434 170.622 27.5953 170.984 24.5131C171.345 21.5156 172.582 19.1686 174.695 17.4719C176.807 15.7753 179.851 14.9269 183.827 14.9269C187.83 14.9269 190.721 15.4501 192.5 16.4963L191.708 23.0709C190.846 22.6185 189.651 22.2226 188.122 21.8832C186.593 21.5439 185.078 21.3742 183.577 21.3742C179.963 21.3742 178.045 22.4205 177.822 24.5131C177.683 25.6159 177.906 26.4077 178.489 26.8884C179.073 27.3691 180.185 27.7367 181.825 27.9912Z" fill="#262626"/>
</svg>

<svg width="204" height="66" fill="none" xmlns="http://www.w3.org/2000/svg"><path d="M15.336 15.52h6.672l-1.376 11.368c1.835-.905 3.697-1.357 5.587-1.357 2.67 0 4.476.636 5.421 1.909.946 1.244 1.28 2.983 1.001 5.217L30.89 47.333h-6.672l1.626-13.658c.223-1.753-.445-2.63-2.001-2.63-1.362 0-2.655.368-3.878 1.103l-1.793 15.185H11.5l3.836-31.812ZM43.725 38.977h-3.17c-.25 1.33-.055 2.262.584 2.8.64.509 1.793.763 3.461.763 2.808 0 5.185-.466 7.13-1.4l-.625 5.302c-2.474.99-5.142 1.485-8.006 1.485-3.447 0-5.907-.905-7.38-2.715-1.446-1.838-1.946-4.666-1.502-8.483.89-7.465 4.601-11.198 11.134-11.198 3.141 0 5.379.566 6.713 1.697 1.362 1.13 1.905 2.8 1.627 5.005-.529 4.496-3.85 6.744-9.966 6.744Zm-2.669-4.157h3.253c.861 0 1.528-.198 2.001-.594.473-.424.75-.933.834-1.527.083-.593-.07-1.088-.459-1.484-.389-.396-1.014-.594-1.876-.594-2.196 0-3.447 1.4-3.753 4.2ZM63.564 42.031l-.667 5.472c-.584.113-1.223.17-1.918.17-1.89 0-3.377-.495-4.462-1.485-1.084-1.018-1.5-2.517-1.25-4.496l3.168-26.171h6.63l-3.043 25.238c-.056.424.027.749.25.975.222.198.653.297 1.292.297ZM74.422 42.031l-.667 5.472a10.1 10.1 0 0 1-1.918.17c-1.89 0-3.378-.495-4.462-1.485-1.084-1.018-1.5-2.517-1.25-4.496l3.168-26.171h6.63L72.88 40.759c-.055.424.028.749.25.975.223.198.654.297 1.293.297ZM95.288 47.333h-4.003l-.667-1.527c-2.447 1.414-4.949 2.12-7.506 2.12-2.669 0-4.476-.621-5.421-1.865-.945-1.273-1.293-3.026-1.043-5.26l1.794-14.676h6.671l-1.668 13.658c-.194 1.753.487 2.63 2.044 2.63 1.39 0 2.668-.368 3.836-1.103l1.835-15.185h6.671l-2.543 21.208ZM110.208 47.672h-5.755l-5.17-21.547h6.963l2.085 13.149 5.254-13.15h6.964l-10.341 21.548ZM131.766 41.522l1.167-9.586c-.778-.594-1.723-.89-2.835-.89-1.446 0-2.488.466-3.128 1.399-.639.905-1.084 2.333-1.334 4.284-.222 1.98-.125 3.422.292 4.327.417.904 1.348 1.357 2.794 1.357.5 0 1-.07 1.501-.212.5-.142.875-.297 1.126-.467l.417-.212Zm8.548-15.397-2.544 21.208h-4.003l-.959-1.697c-1.89 1.527-4.225 2.29-7.005 2.29-2.725 0-4.643-.89-5.755-2.671-1.112-1.81-1.445-4.652-1-8.526.472-3.874 1.487-6.702 3.044-8.483 1.556-1.81 3.697-2.715 6.421-2.715 2.752 0 4.907.764 6.463 2.29l1.335-1.696h4.003ZM159.321 46.782c-1.751.763-3.822 1.145-6.213 1.145s-4.378-.396-5.963-1.188c-1.584-.82-2.724-1.95-3.419-3.393-.695-1.47-1.14-3.21-1.334-5.217-.195-2.036-.112-4.27.25-6.702.306-2.573.764-4.807 1.376-6.702.611-1.923 1.459-3.648 2.543-5.175a10.317 10.317 0 0 1 4.295-3.435c1.752-.792 3.823-1.188 6.213-1.188 2.391 0 4.379.41 5.963 1.23 1.585.792 2.725 1.923 3.42 3.393.695 1.442 1.139 3.182 1.334 5.218.222 2.007.153 4.227-.209 6.659-.333 2.573-.806 4.821-1.417 6.744-.612 1.895-1.474 3.606-2.586 5.133-1.084 1.526-2.502 2.686-4.253 3.478Zm1.126-23.33c-.667-1.583-2.029-2.375-4.086-2.375-2.058 0-3.628.806-4.712 2.418-1.057 1.584-1.807 4.228-2.252 7.932-.473 3.704-.361 6.362.333 7.974.695 1.584 2.072 2.376 4.129 2.376 2.057 0 3.613-.792 4.67-2.376 1.056-1.583 1.821-4.241 2.293-7.974.445-3.733.32-6.39-.375-7.974ZM181.825 27.991c1.891.283 3.406.594 4.545.933a9.214 9.214 0 0 1 3.086 1.485c.917.65 1.529 1.527 1.835 2.63.306 1.103.361 2.488.167 4.157-.862 7.154-5.38 10.73-13.552 10.73-4.337 0-7.52-.65-9.549-1.95l.875-6.956c2.586 1.64 5.504 2.46 8.757 2.46 4.086 0 6.269-1.216 6.547-3.648.139-1.188-.07-2.036-.626-2.545-.528-.51-1.571-.877-3.127-1.103-3.948-.537-6.658-1.513-8.131-2.927-1.474-1.414-2.03-3.662-1.668-6.744.361-2.997 1.598-5.344 3.711-7.041 2.112-1.697 5.156-2.545 9.132-2.545 4.003 0 6.894.523 8.673 1.57l-.792 6.574c-.862-.453-2.057-.848-3.586-1.188a20.93 20.93 0 0 0-4.545-.509c-3.614 0-5.532 1.047-5.755 3.14-.139 1.102.084 1.894.667 2.374.584.481 1.696.849 3.336 1.103Z" fill="#262626"/></svg>
